packages/ffe-icons/icons/open/500/sm/priority.svg

<svg xmlns="http://www.w3.org/2000/svg" height="20" viewBox="0 -960 960 960" width="20"><path d="M360-135.869q-93.348 0-158.739-65.392Q135.869-266.652 135.869-360v-240q0-93.348 65.392-158.739Q266.652-824.131 360-824.131h240q93.348 0 158.739 65.392Q824.131-693.348 824.131-600v240q0 93.348-65.392 158.739Q693.348-135.869 600-135.869H360Zm68.283-321.761-41.805-40.805q-11.717-11.717-26.195-11.217-14.479.5-26.196 12.217-11.717 11.718-11.717 26.315 0 14.598 11.717 26.316l65.13 65.369q12.674 12.674 29.066 12.674 16.391 0 29.065-12.674l150.369-150.369q11.718-11.718 11.718-26.816 0-15.097-11.718-26.815-11.717-11.717-26.315-11.717t-26.315 11.717L428.283-457.63ZM360-218.87h240q59.043 0 100.087-41.043Q741.13-300.957 741.13-360v-240q0-59.043-41.043-100.087Q659.043-741.13 600-741.13H360q-59.043 0-100.087 41.043Q218.87-659.043 218.87-600v240q0 59.043 41.043 100.087Q300.957-218.87 360-218.87ZM480-480Z"/></svg>

<svg xmlns="http://www.w3.org/2000/svg" height="20" viewBox="0 -960 960 960" width="20"><path d="M360-135.87q-93.35 0-158.74-65.39-65.39-65.39-65.39-158.74v-240q0-93.35 65.39-158.74 65.39-65.39 158.74-65.39h240q93.35 0 158.74 65.39 65.39 65.39 65.39 158.74v240q0 93.35-65.39 158.74-65.39 65.39-158.74 65.39H360Zm68.28-321.76-41.8-40.8q-11.72-11.72-26.2-11.22-14.48.5-26.19 12.22-11.72 11.71-11.72 26.31 0 14.6 11.72 26.32l65.13 65.37q12.67 12.67 29.06 12.67t29.07-12.67L607.72-529.8q11.71-11.72 11.71-26.82t-11.71-26.81Q596-595.15 581.4-595.15t-26.31 11.72l-126.81 125.8ZM360-218.87h240q59.04 0 100.09-41.04 41.04-41.05 41.04-100.09v-240q0-59.04-41.04-100.09-41.05-41.04-100.09-41.04H360q-59.04 0-100.09 41.04-41.04 41.05-41.04 100.09v240q0 59.04 41.04 100.09 41.05 41.04 100.09 41.04ZM480-480Z"/></svg>
